X:1
T:8
T:8
T:160 Kurze Übungen op. 821
T:Carl Czerny
C:Carl Czerny
%%score { 1 | 2 }
L:1/8
Q:1/4=160
M:4/4
K:F
V:1 treble nm="Piano" snm="Pno."
V:2 bass 
V:1
"^Allegro"!f! !3!!5![ac']6 [fa]2 | .[fa] !1!F/G/ A/B/!1!c/d/ e/!1!f/g/a/ !4!b/a/g/a/ | %2
 [gb]6 [eg]2 | .[eg] !2!g/a/ b/a/g/!1!f/ !3!e/d/c/!3!B/ A/G/!5!c/B/ | !1!!3![FA]6 !1!!5![ca][ca] | %5
 !2!!5![Bg]6 [Bg][Bg] | !1!!5![Af]4 !1!!4![Ge]4 | [Af] z z2 z4 |] %8
V:2
 !3!F,,/^F,,/!1!G,,/!3!^G,,/ A,,/!3!B,,/!2!=B,,/!1!C,/ !3!^C,/D,/!3!^D,/!2!E,/ !1!=F,/E,/F,/E,/ | %1
 .F, z z2 z4 | %2
 !1!C/=B,/!3!_B,/!1!A,/ !2!_A,/!1!G,/!2!_G,/!1!F,/ !2!E,/!3!_E,/!1!D,/!2!_D,/ !1!C,/!2!=B,,/C,/B,,/ | %3
 C, z z2 z4 | !3!F,,/^F,,/G,,/!3!^G,,/ !1!A,,/!3!B,,/!2!=B,,/!1!C,/ !3!^C,/!1!D,/!3!^D,/E,/ F, z | %5
 !3!B,,/=B,,/C,/!3!^C,/ !1!D,/!3!^D,/E,/F,/ !3!^F,/!1!G,/!3!^G,/!1!A,/ !2!_B, z | %6
 !5!C,/D,/E,/F,/ !1!G,/!4!A,/!3!B,/!2!=B,/ !1!C/B,/C/B,/ C/!2!G,/!4!E,/!5!C,/ | %7
 !2!F,/E,/!1!F,/E,/ F,/!2!C,/!4!A,,/C,/ F,, z z2 |] %8

